X:1
T:Brink, 11.11.11.11
T:Brink, 11.11.11.11
T:Daniel Brink Towner, 1894
T:Public Domain Courtesy of the Cyber Hymnal™
C:Daniel Brink Towner, 1894
Z:Public Domain
Z:Courtesy of the Cyber Hymnal™
%%score 1 ( 2 3 )
L:1/8
Q:1/4=95
M:6/8
K:F
V:1 treble 
V:2 bass 
V:3 bass 
V:1
 [FA]3 [FB][FA][D^G] | [CA]3 [CF]3 | [CG]3 [CG][CF][CE] | [CF]6 | [FA]3 [FB][FA][D^G] | %5
 [CA]3 [CF]3 | [=B,F]3 [B,D][CE][DF] | [CE]6 | [EB]3 [GB][Ac][GB] | [FA]3 [Fc]3 | %10
 [EB]3 [GB][Ac][GB] | [FA]6 | [FA]3 [FB][Fc][Fd] | [Fc]3 [EB]3 | [FA]3 [DG][CF][CE] | [CF]6 |] %16
V:2
 [F,C]3 [F,D][F,C][F,=B,] | [F,C]3 [F,A,]3 | [C,B,]3 [C,B,][C,A,][C,G,] | [F,A,]6 | %4
 [F,C]3 [F,D][F,C][F,=B,] | [F,C]3 [F,A,]3 | G,3 [G,,G,][G,,G,][G,,G,] | [C,G,]6 | %8
 [C,G,]3 [C,C][C,C][C,C] | [F,C]3 [F,A,]3 | [C,G,]3 [C,C][C,C][C,C] | [F,C]6 | %12
 (C2 E,) [D,B,][C,A,][B,,B,] | [A,,C]3 [G,,C]3 | [F,,C]3 [B,,B,][C,A,][C,G,] | [F,A,]6 |] %16
V:3
 x6 | x6 | x6 | x6 | x6 | x6 | G,3 x3 | x6 | x6 | x6 | x6 | x6 | F,3 x3 | x6 | x6 | x6 |] %16

